build/img/sprites/ListChecks.svg

<svg width="54" height="54" viewBox="0 0 54 54" fill="none" xmlns="http://www.w3.org/2000/svg">
<path d="M47.25 27C47.25 27.4475 47.0722 27.8767 46.7557 28.1932C46.4392 28.5097 46.01 28.6875 45.5625 28.6875H27C26.5524 28.6875 26.1232 28.5097 25.8067 28.1932C25.4903 27.8767 25.3125 27.4475 25.3125 27C25.3125 26.5524 25.4903 26.1232 25.8067 25.8067C26.1232 25.4903 26.5524 25.3125 27 25.3125H45.5625C46.01 25.3125 46.4392 25.4903 46.7557 25.8067C47.0722 26.1232 47.25 26.5524 47.25 27ZM27 15.1875H45.5625C46.01 15.1875 46.4392 15.0097 46.7557 14.6932C47.0722 14.3767 47.25 13.9475 47.25 13.5C47.25 13.0524 47.0722 12.6232 46.7557 12.3067C46.4392 11.9903 46.01 11.8125 45.5625 11.8125H27C26.5524 11.8125 26.1232 11.9903 25.8067 12.3067C25.4903 12.6232 25.3125 13.0524 25.3125 13.5C25.3125 13.9475 25.4903 14.3767 25.8067 14.6932C26.1232 15.0097 26.5524 15.1875 27 15.1875ZM45.5625 38.8125H27C26.5524 38.8125 26.1232 38.9903 25.8067 39.3067C25.4903 39.6232 25.3125 40.0524 25.3125 40.5C25.3125 40.9475 25.4903 41.3767 25.8067 41.6932C26.1232 42.0097 26.5524 42.1875 27 42.1875H45.5625C46.01 42.1875 46.4392 42.0097 46.7557 41.6932C47.0722 41.3767 47.25 40.9475 47.25 40.5C47.25 40.0524 47.0722 39.6232 46.7557 39.3067C46.4392 38.9903 46.01 38.8125 45.5625 38.8125ZM17.3686 8.93106L11.8125 14.4893L9.63137 12.3061C9.31472 11.9894 8.88526 11.8115 8.43746 11.8115C7.98966 11.8115 7.5602 11.9894 7.24356 12.3061C6.92691 12.6227 6.74902 13.0522 6.74902 13.5C6.74902 13.9478 6.92691 14.3772 7.24356 14.6939L10.6186 18.0689C10.7753 18.2258 10.9614 18.3502 11.1662 18.4352C11.3711 18.5201 11.5907 18.5638 11.8125 18.5638C12.0342 18.5638 12.2538 18.5201 12.4587 18.4352C12.6635 18.3502 12.8496 18.2258 13.0064 18.0689L19.7564 11.3189C20.073 11.0022 20.2509 10.5728 20.2509 10.125C20.2509 9.67716 20.073 9.2477 19.7564 8.93106C19.4397 8.61441 19.0103 8.43652 18.5625 8.43652C18.1147 8.43652 17.6852 8.61441 17.3686 8.93106ZM17.3686 22.4311L11.8125 27.9893L9.63137 25.8061C9.31472 25.4894 8.88526 25.3115 8.43746 25.3115C7.98966 25.3115 7.5602 25.4894 7.24356 25.8061C6.92691 26.1227 6.74902 26.5522 6.74902 27C6.74902 27.2217 6.7927 27.4412 6.87755 27.6461C6.9624 27.851 7.08677 28.0371 7.24356 28.1939L10.6186 31.5689C10.7753 31.7258 10.9614 31.8502 11.1662 31.9352C11.3711 32.0201 11.5907 32.0638 11.8125 32.0638C12.0342 32.0638 12.2538 32.0201 12.4587 31.9352C12.6635 31.8502 12.8496 31.7258 13.0064 31.5689L19.7564 24.8189C20.073 24.5022 20.2509 24.0728 20.2509 23.625C20.2509 23.1772 20.073 22.7477 19.7564 22.4311C19.4397 22.1144 19.0103 21.9365 18.5625 21.9365C18.1147 21.9365 17.6852 22.1144 17.3686 22.4311ZM17.3686 35.9311L11.8125 41.4893L9.63137 39.3061C9.47458 39.1493 9.28845 39.0249 9.0836 38.9401C8.87875 38.8552 8.65919 38.8115 8.43746 38.8115C8.21573 38.8115 7.99617 38.8552 7.79132 38.9401C7.58647 39.0249 7.40034 39.1493 7.24356 39.3061C7.08677 39.4628 6.9624 39.649 6.87755 39.8538C6.7927 40.0587 6.74902 40.2782 6.74902 40.5C6.74902 40.7217 6.7927 40.9412 6.87755 41.1461C6.9624 41.351 7.08677 41.5371 7.24356 41.6939L10.6186 45.0689C10.7753 45.2258 10.9614 45.3502 11.1662 45.4352C11.3711 45.5201 11.5907 45.5638 11.8125 45.5638C12.0342 45.5638 12.2538 45.5201 12.4587 45.4352C12.6635 45.3502 12.8496 45.2258 13.0064 45.0689L19.7564 38.3189C20.073 38.0022 20.2509 37.5728 20.2509 37.125C20.2509 36.6772 20.073 36.2477 19.7564 35.9311C19.4397 35.6144 19.0103 35.4365 18.5625 35.4365C18.1147 35.4365 17.6852 35.6144 17.3686 35.9311Z" fill="#78213A"/>
</svg>

<svg width="54" height="54" viewBox="0 0 54 54" fill="none" xmlns="http://www.w3.org/2000/svg"><path d="M47.25 27a1.687 1.687 0 01-1.688 1.688H27a1.688 1.688 0 110-3.375h18.563A1.688 1.688 0 0147.25 27zM27 15.187h18.563a1.687 1.687 0 000-3.374H27a1.688 1.688 0 000 3.374zm18.563 23.626H27a1.688 1.688 0 000 3.374h18.563a1.687 1.687 0 000-3.374zM17.369 8.93l-5.556 5.558-2.182-2.183a1.688 1.688 0 10-2.387 2.388l3.375 3.375a1.689 1.689 0 002.387 0l6.75-6.75A1.689 1.689 0 0017.37 8.93zm0 13.5l-5.556 5.558-2.182-2.183a1.688 1.688 0 10-2.387 2.388l3.375 3.375a1.689 1.689 0 002.387 0l6.75-6.75a1.689 1.689 0 00-2.387-2.388zm0 13.5l-5.556 5.558-2.182-2.183a1.687 1.687 0 10-2.387 2.388l3.375 3.375a1.689 1.689 0 002.387 0l6.75-6.75a1.689 1.689 0 00-2.387-2.388z" fill="#78213A"/></svg>
